X: 20694
T: Johnnie's Made A Waddin' O't
R: reel
M: 4/4
K: Gmajor
c|BGdB BGG_B|A=FcF AFFA|BGdG BGGg|1 egdg BGGc:|2 egdg BGGg||
|:bgaf gdde|=fdc_B AFFg|bgaf gdd=f|egfa gGGg|
bgaf gdde|=fdc_B AFFA|G_BAc Bdc_e|1 dgfa gGGg:|2 dgfa gGG||

